X:1
T:Title
%%score 1 { ( 2 3 6 ) | ( 4 5 7 ) }
L:1/8
Q:1/4=82
M:4/4
K:Eb
V:1 treble nm="Akkordion"
V:2 treble nm="Grand Piano"
V:3 treble 
V:6 treble 
V:4 bass 
V:5 bass 
V:7 bass 
V:1
 cc=Bc ecAE | FA B>A c4 | ecBA cAGA | B>c BF B4 | cc=Bc ecAE | FA B>A c4 | efec AB c>E | B4 A4 | %8
w: J.~S.~Fearis * * * * * * *||||||||
[M:17/16] z17/2 |[M:4/4] z8 |[M:17/16] z17/2 |[M:4/4] z8 |[M:17/16] z17/2 |[M:4/4] z8 | z8 | z8 |] %16
w: ||||||||
V:2
 [Ec][Ec][D=B][Ec] ecAE | z2 B2 [Ec]4[K:bass][K:treble] | z8 | z4 B4 | z4 .e2 z2 | %5
 FA z z/ A/ z[K:bass] E, .A,2[K:treble] | efec AB c>E | B4 z4 |[M:17/16] cccccF_d3/2c | %9
[M:4/4] [Dc][DB] [DB]>[DF] [DB]4 |[M:17/16] BBBBBEc3/2B |[M:4/4] [CB][CA][=B,G][B,F] [CE]3 [CE] | %12
[M:17/16] [Ec][Ec][D=B][Ec][Ee][Ec]3/2[CA][CE] |[M:4/4] [_DF][FA] [FB]>[FA] [Ec]4 | efec AB c>E | %15
 B4 z4 |] %16
V:3
 z4 E4 | FA z z/ A/ z[K:bass] E, .A,2[K:treble] | ecBA [Ec]AGA | B>c BF z GFE | %4
 [Ec][Ec][D=B][Ec] E-[E-c][EA]E | z2 B2 [Ec]4[K:bass][K:treble] | x8 | z G .F2 [CA]4 | %8
[M:17/16] x17/2 |[M:4/4] x8 |[M:17/16] x17/2 |[M:4/4] x8 |[M:17/16] x17/2 |[M:4/4] x8 | x8 | %15
 z G .F2 [CA]4 |] %16
V:4
 z E,A,E, z E,A,C | [E,_D][K:treble][A,F] .[D=E]2[K:bass] A,,4 | %2
 A-[EA]E-[CE] z _D[K:bass][B,DE][A,DE] | [G,B,E]2 [F,A,D]2 [G,_D]B,A,G, | z E,A,E, z E,A,C | %5
 _D[K:treble][A,F] .[D=E]2[K:bass] A,,4 | [A,A]4 .[CE]2 E2 | .G,2 z2 z4 | %8
[M:17/16] [A,E][A,E][G,B,=E][G,B,E][F,=A,F][F,A,][F,A,F]3/2[F,A,_E] | %9
[M:4/4] [B,,B,][B,,B,] [B,,B,]>[B,,B,] [B,,A,]4 | %10
[M:17/16] [E,G,E][E,G,E][F,A,D][F,A,D][G,B,_D][G,B,D][E,G,E]3/2[E,D] | %11
[M:4/4] [A,,E,][A,,E,][A,,D,][A,,D,] [A,,E,]3 [A,,A,] | %12
[M:17/16] [A,,A,][A,,A,][A,,A,][A,,A,][C,A,][A,,A,]3/2[A,,E,][A,,A,] | %13
[M:4/4] [_D,A,][D,A,] [D,A,]>[D,A,] [A,,A,]4 | %14
 [A,CA][A,_DA][A,CA][A,E] [F,CF][K:bass][F,A,=D] [E,A,E]>[E,A,C] | [E,G,_D]4 [A,,A,]4 |] %16
V:5
 A,,4 C,4 | _D,4[K:treble][K:bass] z4 | z2 ._D2 z4[K:bass] | z4 E,4 | A,,4 C,4 | %5
 _D,4[K:treble][K:bass] z4 | z _DC[A,E] F,-[F,A,=D] [E,A,]->[E,A,C] | %7
 [E,_D]-[E,-B,D-][E,-A,D-][E,G,D] [A,,E,A,]4 |[M:17/16] x17/2 |[M:4/4] x8 |[M:17/16] x17/2 | %11
[M:4/4] x8 |[M:17/16] x17/2 |[M:4/4] x8 | x5[K:bass] x3 | x8 |] %16
V:6
 x8 | z2 z A, z2[K:bass] z[K:treble] C- | C z z2 z4 | x8 | x8 | z2 z A, z2[K:bass] z[K:treble] C- | %6
 C z z2 z4 | z2 z E- E4 |[M:17/16] x17/2 |[M:4/4] x8 |[M:17/16] x17/2 |[M:4/4] x8 | %12
[M:17/16] x17/2 |[M:4/4] x8 | x8 | z2 z E- E4 |] %16
V:7
 x8 | x[K:treble] x3[K:bass] x4 | A,4 A,2[K:bass] z2 | x8 | x8 | x[K:treble] x3[K:bass] x4 | x8 | %7
 x8 |[M:17/16] x17/2 |[M:4/4] x8 |[M:17/16] x17/2 |[M:4/4] x8 |[M:17/16] x17/2 |[M:4/4] x8 | %14
 x5[K:bass] x3 | x8 |] %16

